!!!!SEGMENT: pl-wn--mus-iii-601--002-003_janiewicz-feliks--iie-trio-pollacca-rondeau.krn
!!!cenid: 17xx:2392
!!!COM: Janiewicz, Feliks
!!!COM-rismID: pe30011012
!!!CDT:
!!!CNT:
!!!OPR: IIe Trio
!!!OTL: Pollacca/Rondeau
!!!OMV: 003
!!!PDT:
!!!AGN:
!!!SMS-siglum: PL-Wn
!!!SMS-shelfmark: Mus.III.601
!!!SMS-shelfwork: 002-003 M
!!!SMS-variant:
!!!SMS-altvar:
!!!NIFC-rismSourceID: 990069598
!!!NIFC-islandoraID:
!!!URL-pdf-islandora:
!!!URL-scan: https://polona.pl/item/six-trios-pour-deux-violons-basse,MTAxMDA3MzY2/0/#item @EN{Scan on Polona} @PL{Skany w portalu Polona}
!!!ONB-nifc: UWAGA: źródło zawiera 6 Trio na 2 skrzypiec i wiolonczelę. Violino Primo (od skanu 3), Violino Secondo (od skanu 37), Basso (od skanu 61). Basso to partia wiolonczeli. Części Ie Trio: 1. Allegro moderato, 2. Andante, 3. Pollacca/Rondeau
!!!AIN: 1 cello 2 violn
!!!key: A
**kern	**dynam	**kern	**dynam	**kern	**dynam	**fing
*part3	*part3	*part2	*part2	*part1	*part1	*part1
*staff3	*	*staff2	*	*staff1	*	*
*I"BASSO	*	*I"VIOLINO SECONDO	*	*I"VIOLINO PRIMO	*	*
*I'B.	*	*I'Vn II	*	*I'Vl I	*	*
*Icello	*	*Ivioln	*	*Ivioln	*	*
*	*	*ICstr	*	*ICstr	*	*
*clefF4	*	*clefG2	*	*clefG2	*	*
*k[f#c#g#]	*	*k[f#c#g#]	*	*k[f#c#g#]	*	*
*A:	*	*A:	*	*A:	*	*
*M3/4	*	*M3/4	*	*M3/4	*	*
=1	=1	=1	=1	=1	=1	=1
!	!	!LO:TX:a:t=Allegretto\nPollacca.	!	!LO:TX:b:t=Pollacca\nRondeau	!	!
!LO:TX:a:t=Allegretto\nPollacca	!	!	!LO:DY:b:t=rinf	!LO:TX:a:B:t=All(egr)o Moderato	!	!
4AA/	.	8c#'/L	rfz	[4ee\	f	2
.	.	8e'/	.	.	.	.
4A\	.	8c#'/	.	16ee\LL]	.	.
.	.	.	.	16cc#`\	.	.
.	.	8e'/	.	16a`\	.	0
.	.	.	.	16cc#`\JJ	.	.
4A\	.	8c#'/	.	16ee\LL	.	.
.	.	.	.	16cc#\	.	.
.	.	8e'/J	.	16a\	.	.
.	.	.	.	16cc#\JJ	.	.
=2	=2	=2	=2	=2	=2	=2
4AA/	.	8c#/L	.	8ee\	.	.
.	.	8e/	.	4aa\	.	.
4A\	.	8c#/	.	.	.	.
.	.	8e/	.	16gg#\LL	.	.
.	.	.	.	16aa\JJ	.	.
4A\	.	8d/	.	(16bb\LL	.	.
.	.	.	.	16aa\)	.	.
.	.	8f#/J	.	16gg#`\	.	.
.	.	.	.	16ff#`\JJ	.	.
=3	=3	=3	=3	=3	=3	=3
4AA/	.	8c#/L	.	[4ee\	.	.
.	.	8e/	.	.	.	.
4A\	.	8c#/	.	16ee\LL]	.	.
.	.	.	.	16cc#`\	.	.
.	.	8e/	.	16a`\	.	.
.	.	.	.	16cc#`\JJ	.	.
4A\	.	8c#/	.	16ee\LL	.	.
.	.	.	.	16cc#\	.	.
.	.	8e/J	.	16a\	.	.
.	.	.	.	16cc#\JJ	.	.
=4	=4	=4	=4	=4	=4	=4
.	.	.	.	8qqee/	.	.
4EE/	.	8B/L	.	8dd\L	.	.
.	.	8e/	.	16cc#\L	.	.
.	.	.	.	16b\JJ	.	.
4E\	.	8d/	.	8b\L	.	.
.	.	8e/	.	8b\J	.	.
4G#\	.	8d/	.	8b\L	.	.
.	.	8e/J	.	16cc#\L	.	.
.	.	.	.	16dd\JJ	.	.
=5	=5	=5	=5	=5	=5	=5
4AA/	.	8c#/L	.	[4ee\	.	.
.	.	8e/	.	.	.	.
4A\	.	8c#/	.	16ee\LL]	.	.
.	.	.	.	16cc#`\	.	.
.	.	8e/	.	16a`\	.	.
.	.	.	.	16cc#`\JJ	.	.
4A\	.	8c#/	.	16ee\LL	.	.
.	.	.	.	16cc#\	.	.
.	.	8e/J	.	16a\	.	.
.	.	.	.	16cc#\JJ	.	.
!	!	!	!	!LO:LB:g=original	!	!
=6	=6	=6	=6	=6	=6	=6
4AA/	.	8c#/L	.	8ee\	.	.
.	.	8e/	.	4aa\	.	.
4A\	.	8c#/	.	.	.	.
.	.	8e/	.	16gg#\LL	.	.
.	.	.	.	16aa\JJ	.	.
4A\	.	8d/	.	16bb\LL	.	.
.	.	.	.	16aa\	.	.
.	.	8f#/J	.	16gg#\	.	.
.	.	.	.	16ff#\JJ	.	.
=7	=7	=7	=7	=7	=7	=7
4AA/	.	8c#/L	.	[4ee\	.	.
.	.	8e/	.	.	.	.
4A\	.	8c#/	.	16ee\LL]	.	.
.	.	.	.	16cc#\	.	.
.	.	8e/	.	16a\	.	.
.	.	.	.	16cc#\JJ	.	.
4E\	.	8B/	.	16dd\LL	.	.
.	.	.	.	16b\	.	.
.	.	8d/J	.	16g#\	.	.
.	.	.	.	16b\JJ	.	.
!	!	!LO:LB:g=original	!	!	!	!
=8	=8	=8	=8	=8	=8	=8
4AA/	.	8c#/L	.	(16a/LL	.	.
.	.	.	.	16b/	.	.
.	.	8e/	.	16a/	.	.
.	.	.	.	16g#/JJ	.	.
4A\	.	8c#/	.	16a/LL	.	.
.	.	.	.	16e/	.	.
.	.	8e/	.	16c#/)	.	.
.	.	.	.	16cc#`/JJ	.	.
.	.	.	.	8qqb/	.	.
4AA/	.	8c#/	.	4a\	.	.
.	.	8e/J	.	.	.	.
=9	=9	=9	=9	=9	=9	=9
.	.	.	.	8qqee/	.	.
4EE/	p	8B/L	p	8dd\L	.	.
!	!	!	!	!LO:TX:a:i:t=dol	!	!
.	.	8e/	.	16cc#\L	.	.
.	.	.	.	16b\JJ	.	.
4E\	.	8d/	.	8b\L	.	.
.	.	8e/	.	8b\J	.	.
4G#\	.	8d/	.	8b\L	.	.
.	.	8e/J	.	16cc#\L	.	.
.	.	.	.	16dd\JJ	.	.
=10	=10	=10	=10	=10	=10	=10
4AA/	.	8c#/L	.	16cc#\LL	.	.
.	.	.	.	16dd\J	.	.
.	.	8e/	.	[8ee\J	.	.
4E\	.	8c#/	.	16ee\LL]	.	.
.	.	.	.	16gg#\J	.	.
.	.	8e/	.	[8aa\J	.	.
4A\	.	8c#/	.	16aa\LL]	.	.
.	.	.	.	16ee\J	.	.
.	.	8e/J	.	8cc#\J	.	.
=11	=11	=11	=11	=11	=11	=11
.	.	.	.	8qqee/	.	.
4EE/	.	8B/L	.	8dd\L	.	.
.	.	8e/	.	16cc#\L	.	.
.	.	.	.	16b\JJ	.	.
4E\	.	8d/	.	8b\L	.	.
.	.	8e/	.	8b\J	.	.
4G#\	.	8d/	.	8b\L	.	.
.	.	8e/J	.	16cc#\L	.	.
.	.	.	.	16dd\JJ	.	.
=12	=12	=12	=12	=12	=12	=12
4AA/	.	8c#/L	.	16cc#\LL	.	.
.	.	.	.	16dd\J	.	.
.	.	8e/	.	[8ee\J	.	.
4E\	.	8c#/	.	16ee\LL]	.	.
.	.	.	.	16gg#\J	.	.
.	.	8e/	.	[8aa\J	.	.
4A\	.	8c#/	.	16aa\LL]	.	.
.	.	.	.	16ee\J	.	.
.	.	8e/J	.	8cc#\J	.	.
!	!	!	!	!LO:LB:g=original	!	!
=13	=13	=13	=13	=13	=13	=13
8A\L	.	8f#/L	.	16dd#X\LL	.	.
!	!	!	!	!	!LO:DY:b:t=rinf	!
.	.	.	.	16ee\J	rfz	.
8B\	.	8d#X/	.	[8ff#\J	.	.
8A\	.	8f#/	.	16ff#\LL]	.	.
.	.	.	.	16gg#\J	.	.
8B\	.	8d#/	.	8aa\J	.	.
.	.	.	.	8qqbb/	.	.
8A\	.	8f#/	.	8aa\L	.	.
8B\J	.	8d#/J	.	16gg#\L	.	.
.	.	.	.	16ff#\JJ	.	.
!LO:LB:g=original	!	!	!	!	!	!
=14	=14	=14	=14	=14	=14	=14
8G#\L	.	2.e/	.	(16ee\LL	.	.
.	.	.	.	16dd#X\	.	.
8B\	.	.	.	16ee\)	.	.
.	.	.	.	16ff#`\JJ	.	.
8G#\	.	.	.	16gg#\LL	.	.
.	.	.	.	16ff#\	.	.
8B\	.	.	.	16gg#\	.	.
.	.	.	.	16aa\JJ	.	.
8G#\	.	.	.	(16bb\LL	.	.
.	.	.	.	16gg#\	.	.
8B\J	.	.	.	16ff#\	.	.
.	.	.	.	16ee\JJ)	.	.
=15	=15	=15	=15	=15	=15	=15
8A\L	.	8f#/L	.	16dd#X\LL	.	.
.	.	.	.	16ee\J	.	.
8B\	.	8d#X/	.	[8ff#\J	.	.
8A\	.	8f#/	.	16ff#\LL]	.	.
.	.	.	.	16gg#\J	.	.
8B\	.	8d#/	.	[8aa\J	.	.
8A\	.	8f#/	.	8aa\L]	.	.
8B\J	.	8d#/J	.	16gg#\L	.	.
.	.	.	.	16ff#\JJ	.	.
=16	=16	=16	=16	=16	=16	=16
4G#\	.	8e/L	.	(16ee\LL	p	.
.	.	.	.	16dd#X\	.	.
.	.	8b/	.	16ee\)	.	.
.	.	.	.	16gg#`\JJ	.	.
[2E\	.	8g#/	.	(16ee\LL	.	.
.	.	.	.	16dd#\	.	.
.	.	8b/	.	16ee\)	.	.
.	.	.	.	16gg#`\JJ	.	.
!	!	!	!	!	!LO:HP:b:t=cres	!
.	.	8a/	.	16ff#\LL	<	.
.	.	.	.	16ee\	.	.
.	.	8b/J	.	16ff#\	.	.
.	.	.	.	16aa\JJ	.	.
=17	=17	=17	=17	=17	=17	=17
4E\]	.	4g#/ 4b	.	(16gg#\LL	.	.
.	.	.	.	16bb\	.	.
.	.	.	.	16aa#X\	.	.
.	.	.	.	16bb\JJ)	.	.
!	!	!	!	!	!LO:DY:b:t=rinf	!
4r	.	4r	.	(16aa#\LL	rfz	.
.	.	.	.	16bb\	.	.
.	.	.	.	16ccc#\	.	.
.	.	.	.	16bb\JJ	.	.
8BB/L	.	8f#/L	.	16aan\LL	.	.
.	.	.	.	16gg#\	.	.
8D#X/J	.	8b/J	.	16aa\	.	.
.	.	.	.	16ff#\JJ)	.	.
!	!	!LO:LB:g=original	!	!LO:LB:g=original	!	!
=18	=18	=18	=18	=18	=18	=18
4E\	.	8g#/L	.	(16ee\LL	p	.
.	.	.	.	16dd#X\	.	.
.	.	8b/	.	16ee\)	.	.
.	.	.	.	16gg#`\JJ	.	.
[2E\	.	8g#/	.	(16ee\LL	.	.
.	.	.	.	16dd#\	.	.
.	.	8b/	.	16ee\)	.	.
.	.	.	.	16gg#`\JJ	.	.
!	!	!	!	!	!LO:HP:b:t=cres	!
.	.	8a/	.	16ff#\LL	<	.
.	.	.	.	16ee\	.	.
.	.	8b/J	.	16ff#\	.	.
.	.	.	.	16aa\JJ	.	.
=19	=19	=19	=19	=19	=19	=19
4E\]	.	4g#/ 4b	.	(16gg#\LL	.	.
.	.	.	.	16bb\	.	.
!	!	!	!	!	!LO:DY:b:t=rinf	!
.	.	.	.	16aa#X\	rfz	.
.	.	.	.	16bb\JJ)	.	.
4r	.	4r	.	(16aa#\LL	.	.
.	.	.	.	16bb\	.	.
.	.	.	.	16ccc#\	.	.
.	.	.	.	16bb\JJ	.	.
8BB/L	.	8f#/L	.	16aan\LL	.	.
.	.	.	.	16gg#\	.	.
8D#X/J	.	8b/J	.	16aa\	.	.
.	.	.	.	16ff#\JJ)	.	.
=20	=20	=20	=20	=20	=20	=20
4E\	.	4g#/ 4b	.	(16ee\LL	p	.
.	.	.	.	16dd#X\)	.	.
.	.	.	.	(16ff#\	.	.
.	.	.	.	16ee\JJ)	.	.
4r	.	4r	.	(16gg#\LL	.	.
.	.	.	.	16ff#\)	.	.
.	.	.	.	(16aa\	.	.
.	.	.	.	16gg#\JJ)	.	.
!	!	!	!	!	!LO:DY:b:t=rinf	!
8D#X/L	.	8f#/L	.	(16bb\LL	rfz	.
.	.	.	.	16aa\	.	.
8BB/J	.	8a/J	.	16ff#\	.	.
.	.	.	.	16gg#\JJ)	.	.
=21	=21	=21	=21	=21	=21	=21
4E\	.	4g#/	.	(16ee\LL	p	.
.	.	.	.	16dd#X\)	.	.
.	.	.	.	(16ff#\	.	.
.	.	.	.	16ee\JJ)	.	.
4r	.	4r	.	(16gg#\LL	.	.
.	.	.	.	16ff#\)	.	.
.	.	.	.	(16aa\	.	.
.	.	.	.	16gg#\JJ)	.	.
!	!	!	!	!	!LO:DY:b:t=rinf	!
8d#X\L	.	8f#/L	.	(16bb\LL	rfz	.
.	.	.	.	16aa\	.	.
8B\J	.	8a/J	.	16ff#\	.	.
.	.	.	.	16gg#\JJ)	.	.
!	!	!	!	!LO:LB:g=original	!	!
=22	=22	=22	=22	=22	=22	=22
4e\	.	4g#/	.	(16ee\LL	.	.
.	.	.	.	16dd#X\)	.	.
.	.	.	.	(16ff#\	.	.
.	.	.	.	16ee\JJ)	.	.
4r	.	4r	.	(16gg#\LL	.	.
.	.	.	.	16ff#\)	.	.
.	.	.	.	(16aa\	.	.
.	.	.	.	16gg#\JJ)	.	.
4r	.	4r	.	(16bb\LL	.	.
.	.	.	.	16aa\)	.	.
.	.	.	.	(16ccc#\	.	.
.	.	.	.	16bb\JJ)	.	.
=23	=23	=23	=23	=23	=23	=23
4E\	.	4g#/ 4b	.	16ddd\LL	.	.
.	.	.	.	16ccc#\	.	.
.	.	.	.	16eee\	.	.
.	.	.	.	16ddd\JJ	.	.
4r	.	4r	.	16fff#\LL	.	.
.	.	.	.	16eee\	.	.
.	.	.	.	16eee\	.	.
.	.	.	.	16ddd\JJ	.	.
4r	.	4r	.	16ddd\LL	.	.
.	.	.	.	16ccc#\	.	.
.	.	.	.	16ccc#\	.	.
.	.	.	.	16bb\JJ	.	.
=24	=24	=24	=24	=24	=24	=24
4EE/	.	4B/ 4g#	.	16bb\LL	.	.
.	.	.	.	16aa\	.	.
.	.	.	.	16aa\	.	.
.	.	.	.	16gg#\JJ	.	.
4r	.	4r	.	16gg#\LL	.	.
!	!	!	!	!	!LO:DY:b:t=rinf	!
.	.	.	.	16ddd\	> rfz	.
.	.	.	.	16ddd\	.	.
.	.	.	.	16ccc#\JJ	.	.
4r	.	4r	.	16ccc#\LL	.	.
.	.	.	.	16bb\	.	.
.	.	.	.	16bb\	.	.
.	.	.	.	16aa\JJ	.	.
=25	=25	=25	=25	=25	=25	=25
!LO:TX:a:t=1	!	!LO:TX:a:t=1	!	!	!	!
2.r	.	2.r	.	16aa\LL	.	.
.	.	.	.	16gg#\	]	.
.	.	.	.	16gg#\	.	.
.	.	.	.	16ff#\JJ	.	.
.	.	.	.	16ff#\LL	.	.
!	!	!	!	!	!LO:DY:b:t=rinf	!
.	.	.	.	16ee\	> rfz	.
.	.	.	.	16ee\	.	.
.	.	.	.	16bb\JJ	.	.
.	.	.	.	16bb\LL	.	.
.	.	.	.	16aa\	.	.
.	.	.	.	16aa\	.	.
.	.	.	.	16gg#\JJ	]]	.
!	!	!	!	!LO:LB:g=original	!	!
=26	=26	=26	=26	=26	=26	=26
!	!	!	!	!	!LO:DY:b:t=rinf	!
4E\	.	4B/ 4d	.	16gg#\LL	> rfz	.
.	.	.	.	16ff#\	.	.
.	.	.	.	16ff#\	.	.
.	.	.	.	16ee\JJ	.	.
4r	.	4r	.	16ee\LL	.	.
.	.	.	.	16ffn\	.	.
.	.	.	.	16ff\	.	.
.	.	.	.	16ee\JJ	.	.
4r	.	4r	.	16ee\LL	.	.
.	.	.	.	16ff#X\	.	.
.	.	.	.	16ff#\	]	.
.	.	.	.	16ee\JJ	.	.
!LO:LB:g=original	!	!	!	!	!	!
=27	=27	=27	=27	=27	=27	=27
!	!	!	!	!LO:TX:b:i:t=dol	!	!
4AA/	p	8c#/L	p	[4ee\	.	2
.	.	8e/	.	.	.	.
4A\	.	8c#/	.	16ee\LL]	.	.
.	.	.	.	16cc#`\	.	.
.	.	8e/	.	16a`\	.	0
.	.	.	.	16cc#`\JJ	.	.
4A\	.	8c#/	.	16ee\LL	.	.
.	.	.	.	16cc#\	.	.
.	.	8e/J	.	16a\	.	.
.	.	.	.	16cc#\JJ	.	.
=28	=28	=28	=28	=28	=28	=28
4AA/	.	8c#/L	.	8ee\	.	.
.	.	8e/	.	4aa\	.	.
4A\	.	8c#/	.	.	.	.
.	.	8e/	.	16gg#\LL	.	.
.	.	.	.	16aa\JJ	.	.
4A\	.	8d/	.	16bb\LL	.	.
.	.	.	.	16aa\	.	.
.	.	8f#/J	.	16gg#\	.	.
.	.	.	.	16ff#\JJ	.	.
=29	=29	=29	=29	=29	=29	=29
4AA/	.	8c#/L	.	[4ee\	.	.
.	.	8e/	.	.	.	.
4A\	.	8c#/	.	16ee\LL]	.	.
.	.	.	.	16cc#\	.	.
.	.	8e/	.	16a\	.	.
.	.	.	.	16cc#\JJ	.	.
4A\	.	8c#/	.	16ee\LL	.	.
.	.	.	.	16cc#\	.	.
.	.	8e/J	.	16a\	.	.
.	.	.	.	16cc#\JJ	.	.
=30	=30	=30	=30	=30	=30	=30
.	.	.	.	8qqee/	.	.
4EE/	.	8B/L	.	8dd\L	.	.
.	.	8e/	.	16cc#\L	.	.
.	.	.	.	16b\JJ	.	.
4E\	.	8d/	.	8b\L	.	.
.	.	8e/	.	8b\J	.	.
4G#\	.	8d/	.	8b\L	.	.
.	.	8e/J	.	16cc#\L	.	.
.	.	.	.	16dd\JJ	.	.
!	!	!LO:LB:g=original	!	!LO:LB:g=original	!	!
=31	=31	=31	=31	=31	=31	=31
4AA/	.	8c#/L	.	4ee\	.	.
.	.	8e/	.	.	.	.
4A\	.	8c#/	.	16ee\LL	.	.
.	.	.	.	16cc#\	.	.
.	.	8e/	.	16a\	.	.
.	.	.	.	16cc#\JJ	.	.
4A\	.	8c#/	.	16ee\LL	.	.
.	.	.	.	16cc#\	.	.
.	.	8e/J	.	16a\	.	.
.	.	.	.	16cc#\JJ	.	.
=32	=32	=32	=32	=32	=32	=32
!	!LO:DY:b:t=rinf	!	!	!	!	!
4AA/	rfz	8c#/L	.	8ee\	.	.
!	!	!	!LO:DY:b:t=rinf	!	!LO:DY:b:t=rinf	!
.	.	8e/	rfz	4aa\	rfz	.
4A\	.	8c#/	.	.	.	.
.	.	8e/	.	4aa\	.	.
4A\	.	8c#/	.	.	.	.
.	.	8e/J	.	16ccc#\LL	.	.
.	.	.	.	16ddd\JJ	.	.
=33	=33	=33	=33	=33	=33	=33
4AA/	.	8c#/L	f	4eee\	.	.
.	.	8e/	.	.	.	.
4A\	.	8c#/	.	16eee\LL	f	.
.	.	.	.	16ccc#\	.	.
.	.	8e/	.	16aa\	.	.
.	.	.	.	16ccc#\JJ	.	.
4E\	f	8B/	.	16ddd\LL	.	.
.	.	.	.	16bb\	.	.
.	.	8d/J	.	16gg#\	.	.
.	.	.	.	16bb\JJ	.	.
=34	=34	=34	=34	=34	=34	=34
4AA/	.	8c#/L	.	(16aa\LL	.	2
.	.	.	.	16bb\	.	.
.	.	8e/	.	16aa\	.	.
.	.	.	.	16gg#\JJ	.	.
8r	.	8c#/	.	16aa\LL	.	.
.	.	.	.	16ee\	.	.
8E\	.	8e/J	.	16cc#\)	.	.
.	.	.	.	16ccc#\JJ	.	.
.	.	.	.	8qqbb/	.	.
4A\	.	4c#/	.	4aa\	.	.
=35	=35	=35	=35	=35	=35	=35
2F#\	.	8A/L	f	16ff#\LL	f	.
.	.	.	.	16gg#\	.	.
.	.	8c#/	.	16ff#\	.	.
.	.	.	.	16ee#X\JJ	.	.
.	.	8A/	.	16ff#\LL	.	.
.	.	.	.	16cc#\	.	.
.	.	8c#/J	.	16a\	.	.
.	.	.	.	16aa\JJ	.	.
4E#X\	.	8B/L	.	16gg#\LL	.	.
.	.	.	.	16bb\	.	.
.	.	8dn/J	.	16aa\	.	.
.	.	.	.	16gg#\JJ	.	.
=36	=36	=36	=36	=36	=36	=36
4F#\	.	8A/L	.	16ff#\LL	.	.
.	.	.	.	16gg#\J	.	.
.	.	8c#/	.	[8aa\J	.	.
4r	.	8A/	.	16aa\LL]	.	.
.	.	.	.	16gg#\J	.	.
.	.	8c#/J	.	8.ff#\J	.	.
4C#/	.	8G#/L	.	.	.	.
.	.	.	.	16ee#X\LL	.	.
.	.	8B/J	.	16ff#\	.	.
.	.	.	.	16gg#\JJ	.	.
!	!	!	!	!LO:LB:g=original	!	!
=37	=37	=37	=37	=37	=37	=37
2F#\	.	8A/L	.	16ff#\LL	.	.
.	.	.	.	16gg#\	.	.
.	.	8c#/	.	16ff#\	.	.
.	.	.	.	16ee#X\JJ	.	.
.	.	8A/	.	16ff#\LL	.	.
.	.	.	.	16cc#\	.	.
.	.	8c#/J	.	16a\	.	.
.	.	.	.	16aa\JJ	.	.
4E#X\	.	8B/L	.	16gg#\LL	.	.
.	.	.	.	16bb\	.	.
.	.	8d/J	.	16aa\	.	.
.	.	.	.	16gg#\JJ	.	.
=38	=38	=38	=38	=38	=38	=38
4F#\	.	8A/L	.	16ff#\LL	.	.
.	.	.	.	16gg#\J	.	.
.	.	8c#/	.	8aa\J	.	.
4r	.	8A/	.	16aa\LL	.	.
.	.	.	.	16gg#\J	.	.
.	.	8c#/	.	8.ff#\J	.	.
4C#/	.	8G#/	.	.	.	.
.	.	.	.	16ee#X\LL	.	.
.	.	8B/J	.	16ff#\	.	.
.	.	.	.	16gg#\JJ	.	.
=39	=39	=39	=39	=39	=39	=39
!	!LO:DY:b:t=rinf	!	!	!	!	!
2F#\	rfz	8A/L	.	(16ff#\LL	.	.
.	.	.	.	16gg#\)	.	.
.	.	8c#/	.	16ff#`\	.	.
.	.	.	.	16ee#X`\JJ	.	.
.	.	8A/	.	(16ff#\LL	.	.
.	.	.	.	16cc#\	.	.
.	.	8c#/	.	16a\	.	.
.	.	.	.	16aa\JJ)	.	.
4En\	.	8A/	.	(16ff#\LL	.	.
.	.	.	.	16cc#\	.	.
.	.	8c#/J	.	16a\	.	.
.	.	.	.	16ccc#\JJ)	.	.
!	!	!LO:LB:g=original	!	!	!	!
=40	=40	=40	=40	=40	=40	=40
2D#X\	.	8A/	.	(16ccc#\LL	.	.
.	.	.	.	16bb\	.	.
.	.	4f#/	.	16aa#X\	.	.
.	.	.	.	16bb\JJ)	.	.
.	.	.	.	(16bb\LL	.	.
.	.	.	.	16aan\	.	.
.	.	8b\L	.	16gg#\	.	.
.	.	.	.	16aa\JJ)	.	.
4E\	.	8b\	.	(16aa\LL	.	.
.	.	.	.	16gg#\	.	.
.	.	8b\J	.	16ff#X\	.	.
.	.	.	.	16gg#\JJ)	.	.
=41	=41	=41	=41	=41	=41	=41
4A\	.	[2a/	.	16ff#X\LL	.	.
.	.	.	.	16ee#X\	.	.
.	.	.	.	16gg#\	.	.
.	.	.	.	16ff#\JJ	.	.
4F#\	.	.	.	16aa\LL	.	.
.	.	.	.	16gg#\	.	.
.	.	.	.	16bb\	.	.
.	.	.	.	16aa\JJ	.	.
.	.	.	.	8qqddd/	.	.
4A\	.	8a/L]	.	8ccc#\L	.	.
.	.	8cc#/J	.	16aa\L	.	.
.	.	.	.	16ff#\JJ	.	.
!	!	!	!	!LO:LB:g=original	!	!
=42	=42	=42	=42	=42	=42	=42
4B\	.	(4g#/	.	4ee\	.	.
4BB/	.	8f#/)	.	(16dd#X\LL	.	.
.	.	.	.	16b\	.	.
.	.	8r	.	16cc#\	.	.
.	.	.	.	16dd#\JJ	.	.
4r	.	4r	.	16ee\LL	.	.
.	.	.	.	16ff#\	.	.
.	.	.	.	16gg#\	.	.
.	.	.	.	16aa\JJ)	.	.
=43	=43	=43	=43	=43	=43	=43
!LO:TX:a:t=1	!	!	!LO:DY:b:t=rinf	!	!	!
2.r	.	(16ee\LL	rfz	4gg#\ [4bb	.	.
.	.	16dd#X\	.	.	.	.
.	.	16ee\	.	.	.	.
.	.	16dd#\JJ	.	.	.	.
!	!	!LO:TX:t=P:problem:mixed beam	!	!	!	!
.	.	8ee\L)	.	8gg#\L 8bb]	.	.
.	.	8e'/	.	(8ee\ 8gg#	.	.
.	.	8d#X'/	.	8ff#\ 8aa	.	.
.	.	8e'/J	.	8aa\J) 8ccc#	.	.
!LO:LB:g=original	!	!	!	!	!	!
=44	=44	=44	=44	=44	=44	=44
4r	.	4e/	.	8aa\L 8ccc#	.	.
.	.	.	.	8gg#\J 8bb	.	.
(16E\LL	.	4r	.	4gg#\ 4bb	.	.
16D#X\	.	.	.	.	.	.
16E\	.	.	.	.	.	.
16D#\JJ	.	.	.	.	.	.
!LO:TX:t=P:problem:mixed beam	!	!	!	!	!	!
8E\L)	.	4r	.	4r	.	.
8EE/J	.	.	.	.	.	.
=45	=45	=45	=45	=45	=45	=45
!LO:TX:a:t=1	!	!	!LO:DY:b:t=rinf	!	!	!
2.r	.	(16ee\LL	rfz	4gg#\ [4bb	.	.
.	.	16dd#X\	.	.	.	.
.	.	16ee\	.	.	.	.
.	.	16dd#\JJ	.	.	.	.
!	!	!LO:TX:t=P:problem:mixed beam	!	!	!	!
.	.	8ee\L)	.	8gg#\L 8bb]	.	.
.	.	8e'/	.	(8ee\ 8gg#	.	.
.	.	8d#X'/	.	8ff#\ 8aa	.	.
.	.	8e'/J	.	8aa\J) 8ccc#	.	.
=46	=46	=46	=46	=46	=46	=46
4r	.	4e/	.	8aa\L 8ccc#	.	.
.	.	.	.	8gg#\J 8bb	.	.
(16E\LL	.	4r	.	4gg#\ 4bb	.	.
16D#X\	.	.	.	.	.	.
16E\	.	.	.	.	.	.
16D#\JJ	.	.	.	.	.	.
!LO:TX:t=P:problem:mixed beam	!	!	!	!	!	!
8E\L)	.	4r	.	4r	.	.
8EE/J	.	.	.	.	.	.
=47	=47	=47	=47	=47	=47	=47
!LO:TX:a:t=3	!	!	!	!	!	!
!LO:N:vis=0	!	!	!	!	!	!
1.r	.	(16b\LL	p	4.ff#\ 4.aa	p	.
.	.	16ccn\	.	.	.	.
.	.	16b\	.	.	.	.
.	.	16cc\JJ)	.	.	.	.
.	.	8b/L	.	.	.	.
.	.	8a/	.	(8dd#X\L 8ff#	.	.
.	.	8g#/	.	8ee\ 8gg#	.	.
.	.	8e/J	.	8gg#\J) 8bb	.	.
=48	=48	=48	=48	=48	=48	=48
*	*	*	*	*^	*	*
.	.	(16b\LL	.	4.ff#\ 4.aa	4rcyy	.	.
.	.	16ccn\	.	.	.	.	.
.	.	16b\	.	.	.	.	.
.	.	16cc\JJ)	.	.	.	.	.
.	.	8b/L	.	.	8rcyy	.	.
.	.	8a/	.	8ff#/L	8dd#X\L	.	.
.	.	8g#/	.	8gg#/	8ee\J	.	.
.	.	8e/J	.	8eee/J	8rc	.	.
*	*	*	*	*v	*v	*	*
!	!	!LO:LB:g=original	!	!	!	!
=49	=49	=49	=49	=49	=49	=49
!	!	!	!	!	!LO:HP:b:t=cres	!
2.r	.	8a/L	.	(16bb#X\LL	<	.
.	.	.	.	16ccc#\)	.	.
.	.	8a/	.	16aa`\	.	.
.	.	.	.	16ff#`\JJ	.	.
.	.	8b/	.	(16aa#X\LL	.	.
.	.	.	.	16bb#\)	.	.
.	.	8b/J	.	16gg#`\	.	.
.	.	.	.	16ee`\JJ	.	.
.	.	8B/L	.	(16bb#\LL	.	.
.	.	.	.	16aan\	.	.
.	.	8B/J	.	16ff#\	.	.
.	.	.	.	16gg#\JJ)	.	.
!	!	!	!	!LO:LB:g=original	!	!
=50	=50	=50	=50	=50	=50	=50
4E\	f	4B/ 4g#	f	8ee/L	f	.
.	.	.	.	(16e/L	.	.
.	.	.	.	16ee/JJ)	.	.
4r	.	4r	.	(16g#\LL	.	.
.	.	.	.	16gg#\)	.	.
.	.	.	.	(16b\	.	.
.	.	.	.	16bb\JJ)	.	.
4r	.	4r	.	(16cc#\LL	.	.
.	.	.	.	16eee\)	.	.
.	.	.	.	16ddd#X`\	.	.
.	.	.	.	16ccc#`\JJ	.	.
=51	=51	=51	=51	=51	=51	=51
4D#X\	.	4f#/	.	(16bb\LL	.	.
.	.	.	.	16aa#X\	.	.
.	.	.	.	16bb\)	.	.
.	.	.	.	16ccc#`\JJ	.	.
4D#\	.	4f#/	.	(16bb\LL	.	.
.	.	.	.	16aa#\	.	.
.	.	.	.	16bb\)	.	.
.	.	.	.	16ccc#`\JJ	.	.
4D#\	.	4f#/	.	(16bb\LL	.	.
.	.	.	.	16ccc#\)	.	.
.	.	.	.	(16aan\	.	.
.	.	.	.	16ff#\JJ)	.	.
=52	=52	=52	=52	=52	=52	=52
4E\	.	4e/	.	8gg#/L	.	.
.	.	.	.	(16e/L	.	.
!	!	!	!	!	!LO:DY:a	!
.	.	.	.	16ee/JJ)	p	.
4r	.	4r	.	(16g#\LL	.	.
.	.	.	.	16gg#\)	.	.
.	.	.	.	(16b\	.	.
.	.	.	.	16bb\JJ	.	.
4r	.	4r	.	16ee\LL)	.	.
.	.	.	.	16eee\	.	.
.	.	.	.	16ddd#X\	.	.
.	.	.	.	16ccc#\JJ	.	.
=53	=53	=53	=53	=53	=53	=53
4d#X\	.	4f#/	.	16bb\LL	.	.
.	.	.	.	16aa#X\	.	.
.	.	.	.	16bb\	.	.
.	.	.	.	16ccc#\JJ	.	.
4d#\	.	4f#/	.	16bb\LL	.	.
.	.	.	.	16aa#\	.	.
.	.	.	.	16bb\	.	.
.	.	.	.	16ccc#\JJ	.	.
4d#\	.	4f#/	.	16bb\LL	.	.
.	.	.	.	16ccc#\	.	.
.	.	.	.	16aan\	.	.
.	.	.	.	16ff#\JJ	.	.
!	!	!	!	!LO:LB:g=original	!	!
=54	=54	=54	=54	=54	=54	=54
8e\	.	8.e/L	.	16gg#`\LL	.	.
.	.	.	.	(16ee\	.	.
8r	.	.	.	16eee\)	.	.
.	.	16f#/Jk	.	(16ddd#X\JJ	.	.
8.e\L	.	8.g#/L	.	16ccc#\LL)	.	.
.	.	.	.	(16cc#\	.	.
.	.	.	.	16ccc#\)	.	.
16d#X\Jk	.	16f#/Jk	.	(16bb\JJ	.	.
8.c#\L	.	8.e/L	.	16aa\LL)	.	.
.	.	.	.	(16a\	.	.
.	.	.	.	16aa\)	.	.
16B\Jk	.	16d#X/Jk	.	16gg#`\JJ	.	.
=55	=55	=55	=55	=55	=55	=55
8A\L	.	8c#/L	.	(16ff#\LL	.	.
.	.	.	.	16aa\)	.	.
8B\	.	8dn/	.	16gg#`\	.	.
.	.	.	.	16ee#X`\JJ	.	.
8A\	.	8c#/	.	16ff#\LL	.	.
.	.	.	.	16aa\	.	.
8B\J	.	8d/J	.	16gg#\	.	.
.	.	.	.	16ee#\JJ	.	.
4A\	.	4c#/	.	(16ff#\LL	.	.
.	.	.	.	16aa\	.	.
.	.	.	.	16bb\	.	.
.	.	.	.	16ccc#\JJ)	.	.
=56	=56	=56	=56	=56	=56	=56
4B\	p	8e/L	.	[4bb\	.	.
!	!	!LO:TX:b:i:t=dol	!	!	!	!
.	.	8g#/J	.	.	.	.
4r	.	(16g#/LL	.	16bb\LL]	.	.
.	.	16f#/	.	16aa`\	.	.
.	.	16e/	.	16gg#`\	.	.
.	.	16f#/JJ)	.	16aa`\JJ	.	.
4r	.	8g#/L	.	8bb`\L	.	.
.	.	8g#/J	.	8eee`\J	.	.
=57	=57	=57	=57	=57	=57	=57
4B\	.	8e/L	.	[4bb\	.	.
.	.	8g#/J	.	.	.	.
4r	.	(16g#/LL	.	16bb\LL]	.	.
.	.	16f#/	.	16aa\	.	.
.	.	16e/	.	16gg#\	.	.
.	.	16f#/JJ)	.	16aa\JJ	.	.
4r	.	8g#/L	.	8bb\L	.	.
.	.	8g#/J	.	8eee\J	.	.
!LO:LB:g=original	!	!	!	!	!	!
=58	=58	=58	=58	=58	=58	=58
4BB/	.	4g#/	.	8bbT\L	.	.
.	.	.	.	8eee\J	.	.
4r	.	4r	.	8gg#t\L	.	.
.	.	.	.	8bb\J	.	.
4r	.	4r	.	8eeT\L	.	.
.	.	.	.	8gg#\J	.	.
!	!	!	!	!LO:LB:g=original	!	!
=59	=59	=59	=59	=59	=59	=59
!LO:TX:a:t=1	!	!LO:TX:a:t=1	!	!	!	!
2.r	.	2.r	.	16b\LL	.	.
.	.	.	.	16bb\	.	.
.	.	.	.	16aa\	.	.
.	.	.	.	16gg#\JJ	.	.
.	.	.	.	16ff#\LL	.	.
.	.	.	.	16ee\	.	.
.	.	.	.	16dd#X\	.	.
.	.	.	.	16cc#\JJ	.	.
.	.	.	.	(16b/LL	.	.
.	.	.	.	16a#X/)	.	.
.	.	.	.	16an`/	.	.
.	.	.	.	16g#`/JJ	.	.
!	!	!LO:LB:g=original	!	!	!	!
=60	=60	=60	=60	=60	=60	=60
(16B\LL	.	8e/L	p	2.f#T/	.	.
16A#X\	.	.	.	.	.	.
16B\	.	8e/J	.	.	.	.
16A#\JJ)	.	.	.	.	.	.
!LO:TX:t=P:problem:mixed beam	!	!	!	!	!	!
8B\L	.	8d#X/L	.	.	.	.
8BB/	.	8d#/	.	.	.	.
8B\	.	8d#/	.	.	.	.
8B\J	.	8d#/J	.	.	.	.
=61	=61	=61	=61	=61	=61	=61
!LO:TX:b:i:t=dol	!	!LO:TX:b:t=Sotto voce	!	!	!	!
(4.E\	.	(16e/LL	.	4e/	.	.
.	.	16g#/J)	.	.	.	.
.	.	8b`/J	.	.	.	.
.	.	(16b/LL	.	4r	.	.
.	.	16g#/J)	.	.	.	.
16G#\LL	.	8e`/J	.	.	.	.
16B\JJ)	.	.	.	.	.	.
(16A\LL	.	(16e/LL	.	4r	.	.
16G#\	.	16g#/J)	.	.	.	.
16F#\	.	8b`/J	.	.	.	.
16E\JJ)	.	.	.	.	.	.
=62	=62	=62	=62	=62	=62	=62
4D#X\	.	16f#/LL	.	4.b\	.	.
.	.	16a/J	.	.	.	.
.	.	8b/J	.	.	.	.
4r	.	16b/LL	.	.	.	.
.	.	16a/J	.	.	.	.
!	!	!	!	!	!LO:DY:a:t=rinf	!
.	.	8f#/J	.	16dd#X\LL	rfz	.
.	.	.	.	16ff#\JJ	.	.
4D#\	.	16f#/LL	.	(16bb\LL	.	.
.	.	16a/J	.	16aa\	.	.
.	.	8b/J	.	16gg#\	.	.
.	.	.	.	16ff#\JJ)	.	.
=63	=63	=63	=63	=63	=63	=63
(4.E\	.	16e/LL	.	4ee\	.	.
.	.	16g#/J	.	.	.	.
.	.	8b/J	.	.	.	.
.	.	16b/LL	.	4r	.	.
.	.	16g#/J	.	.	.	.
16G#\LL	.	8e/J	.	.	.	.
16B\JJ)	.	.	.	.	.	.
(16A\LL	.	16e/LL	.	4r	.	.
16G#\	.	16g#/J	.	.	.	.
16F#\	.	8b/J	.	.	.	.
16E\JJ)	.	.	.	.	.	.
=64	=64	=64	=64	=64	=64	=64
4D#X\	.	16f#/LL	.	4.b\	.	.
.	.	16a/J	.	.	.	.
.	.	8b/J	.	.	.	.
4r	.	16b/LL	.	.	.	.
.	.	16a/J	.	.	.	.
.	.	8f#/J	.	16dd#X\LL	.	.
.	.	.	.	16ff#\JJ	.	.
4D#\	.	16f#/LL	.	16bb\LL	.	.
.	.	16a/J	.	16aa\	.	.
.	.	8b/J	.	16gg#\	.	.
.	.	.	.	16ff#\JJ	.	.
=65	=65	=65	=65	=65	=65	=65
4E\	.	4g#/	.	(16ee\LL	p	.
.	.	.	.	16gg#\J)	.	.
.	.	.	.	8bb`\J	.	.
4r	.	4r	.	(16bb\LL	.	.
.	.	.	.	16gg#\J)	.	.
.	.	.	.	8ee`\J	.	.
4r	.	4r	.	(16ee\LL	.	.
.	.	.	.	16gg#\J)	.	.
.	.	.	.	8bb`\J	.	.
=66	=66	=66	=66	=66	=66	=66
!LO:TX:a:t=8	!	!	!	!	!	!
!LO:N:vis=00	!	!	!	!	!	!
0.r	.	(16e/LL	.	16gg#\LL	.	.
.	.	16g#/J)	.	16bb\J	.	.
.	.	8b`/J	.	8dddn\J	.	.
.	.	(16b/LL	.	16ddd\LL	.	.
.	.	16g#/J)	.	16bb\J	.	.
.	.	8e`/J	.	8gg#\J	.	.
!	!	!	!	!	!LO:HP:b:t=cres	!
.	.	(16e/LL	.	16gg#\LL	<	.
.	.	16g#/J)	.	16bb\J	.	.
.	.	8b`/J	.	8ddd\J	.	.
!	!	!	!	!LO:LB:g=original	!	!
=67	=67	=67	=67	=67	=67	=67
.	.	(16g#\LL	.	16bb\LL	.	.
.	.	16b\J)	.	16ddd\J	.	.
.	.	8dd`\J	.	8fff#\J	.	.
.	.	(16dd\LL	.	16fff#\LL	.	.
.	.	16b\J)	.	16ddd\J	.	.
.	.	8g#`\J	.	8bb\J	.	.
.	.	(16g#\LL	.	16bb\LL	.	.
.	.	16b\J)	.	16ddd\J	.	.
.	.	8dd`\J	.	8fff#\J	.	.
!	!	!LO:LB:g=original	!	!	!	!
=68	=68	=68	=68	=68	=68	=68
!	!	!	!	!	!LO:DY:b:t=rinf	!
.	.	(16dd\LL	.	(16fff#\LL	rfz	.
.	.	16b\	.	16ddd\)	.	.
.	.	16dd\	.	(16fff#\	.	.
.	.	16b\JJ)	.	16ddd\JJ)	.	.
.	.	(16dd\LL	.	(16fff#\LL	.	.
.	.	16b\	.	16ddd\)	.	.
.	.	16dd\	.	(16fff#\	.	.
.	.	16b\JJ)	.	16ddd\JJ)	.	.
.	.	(16dd\LL	.	(16fff#\LL	.	.
.	.	16b\	.	16ddd\)	.	.
.	.	16dd\	.	(16fff#\	.	.
.	.	16b\JJ)	.	16ddd\JJ)	.	.
=69	=69	=69	=69	=69	=69	=69
.	.	8dd\	.	16fff#\LL	>	.
.	.	.	.	16ddd\	.	.
.	.	4ee\	.	16ccc#\	.	.
.	.	.	.	16eee\JJ	.	.
.	.	.	.	16ddd\LL	.	.
.	.	.	.	16bb\	.	.
.	.	8ee\	.	16aa\	.	.
.	.	.	.	16ccc#\JJ	.	.
.	.	4e/	.	16bb\LL	.	.
.	.	.	.	16gg#\	.	.
.	.	.	.	16ff#\	]	.
.	.	.	.	16aa\JJ	.	.
=70	=70	=70	=70	=70	=70	=70
!LO:N:vis=00	!	!LO:TX:a:t=1	!	!	!	!
0.r	.	2.r	.	16gg#\LL	.	.
.	.	.	.	16ee\	.	.
.	.	.	.	16dd#X\	<	.
.	.	.	.	16ff#\JJ	.	.
.	.	.	.	16ee\LL	.	.
.	.	.	.	16gg#\	.	.
.	.	.	.	16gg#\	.	.
.	.	.	.	16bb\JJ	.	.
.	.	.	.	16bb\LL	.	.
.	.	.	.	16ddd\	.	.
.	.	.	.	16ddd\	[	.
.	.	.	.	16fff#\JJ	.	.
!	!	!	!	!LO:LB:g=original	!	!
=71	=71	=71	=71	=71	=71	=71
.	.	8r	.	16fff#\LL	.	.
.	.	.	.	16ddd\	.	.
.	.	8e/	.	16ccc#\	.	.
.	.	.	.	16eee\JJ	.	.
.	.	8ee\L	.	16ddd\LL	.	.
.	.	.	.	16bb\	.	.
.	.	8ee\J	.	16aa\	.	.
.	.	.	.	16ccc#\JJ	.	.
.	.	4ee\	.	16bb\LL	.	.
.	.	.	.	16gg#\	.	.
.	.	.	.	16ff#\	.	.
.	.	.	.	16aa\JJ	.	.
=72	=72	=72	=72	=72	=72	=72
.	.	8e'/L	p	16gg#\LL	>	.
.	.	.	.	16ee\	.	.
.	.	8f#'/	.	16aa\	.	.
.	.	.	.	16ee\JJ	.	.
.	.	8g#'/	.	16bb\LL	.	.
.	.	.	.	16ee\	.	.
.	.	8a'/	.	16ccc#\	.	.
.	.	.	.	16ee\JJ	.	.
.	.	8b'/	.	16ddd\LL	.	.
.	.	.	.	16ee\	.	.
.	.	8a'/J	.	16ccc#\	.	.
.	.	.	.	16ee\JJ	.	.
=73	=73	=73	=73	=73	=73	=73
.	.	8g#'/L	.	16bb\LL	.	.
.	.	.	.	16ee\	.	.
.	.	8a'/	.	16ccc#\	.	.
.	.	.	.	16ee\JJ	.	.
.	.	8g#'/	.	16bb\LL	.	.
.	.	.	.	16ee\	.	.
.	.	8f#'/	.	16aa\	.	.
.	.	.	.	16ee\JJ	.	.
.	.	8e'/	.	16gg#\LL	.	.
.	.	.	.	16ee\	.	.
.	.	8dn/J	.	16ff#\	.	.
.	.	.	.	16ee\JJ	]]	.
=74	=74	=74	=74	=74	=74	=74
[2.AA/	p	8e`/L	.	[4ee\	p	.
.	.	(16e/L	.	.	.	.
.	.	16c#/JJ)	.	.	.	.
.	.	8e`/L	.	16ee\LL]	.	.
.	.	.	.	16cc#`\	.	.
.	.	(16e/L	.	16a`\	.	.
.	.	16c#/JJ)	.	16cc#`\JJ	.	.
.	.	8e`/L	.	16ee\LL	.	.
.	.	.	.	16cc#\	.	.
.	.	(16e/L	.	16a\	.	.
.	.	16c#/JJ)	.	16cc#\JJ	.	.
=75	=75	=75	=75	=75	=75	=75
2.AA/_	.	8e`/L	.	8ee\	.	.
.	.	(16e/L	.	4aa\	.	.
.	.	16c#/JJ)	.	.	.	.
.	.	8e`/L	.	.	.	.
.	.	(16e/L	.	16gg#\LL	.	.
.	.	16c#/JJ)	.	16aa\JJ	.	.
.	.	8f#`/L	.	(16bb\LL	.	.
.	.	.	.	16aa\)	.	.
.	.	(16f#/L	.	16gg#`\	.	.
.	.	16d/JJ)	.	16ff#`\JJ	.	.
!	!	!	!	!LO:LB:g=original	!	!
=76	=76	=76	=76	=76	=76	=76
2.AA/]	.	8e/L	.	[4ee\	.	.
.	.	16e/L	.	.	.	.
.	.	16c#/JJ	.	.	.	.
.	.	8e/L	.	16ee\LL]	.	.
.	.	.	.	16cc#\	.	.
.	.	16e/L	.	16a\	.	.
.	.	16c#/JJ	.	16cc#\JJ	.	.
.	.	8e/L	.	16ee\LL	.	.
.	.	.	.	16cc#\	.	.
.	.	16e/L	.	16a\	.	.
.	.	16c#/JJ	.	16cc#\JJ	.	.
!	!	!LO:LB:g=original	!	!	!	!
=77	=77	=77	=77	=77	=77	=77
.	.	.	.	8qqee/	.	.
4GG#/	.	8e/L	.	8dd\L	.	.
.	.	16e/L	.	16cc#\L	.	.
.	.	16B/JJ	.	16b\JJ	.	.
4EE/	.	8d/L	.	8b\L	.	.
.	.	16d/L	.	8b\J	.	.
.	.	16B/JJ	.	.	.	.
4GG#/	.	8e/L	.	8b\L	.	.
.	.	16e/L	.	16cc#\L	.	.
.	.	16B/JJ	.	16dd\JJ	.	.
!LO:LB:g=original	!	!	!	!	!	!
=78	=78	=78	=78	=78	=78	=78
[2.AA/	.	8e/L	.	[4ee\	.	.
.	.	16e/L	.	.	.	.
.	.	16c#/JJ	.	.	.	.
.	.	8e/L	.	16ee\LL]	.	.
.	.	.	.	16cc#\	.	.
.	.	16e/L	.	16a\	.	.
.	.	16c#/JJ	.	16cc#\JJ	.	.
.	.	8e/L	.	16ee\LL	.	.
.	.	.	.	16cc#\	.	.
.	.	16e/L	.	16a\	.	.
.	.	16c#/JJ	.	16cc#\JJ	.	.
=79	=79	=79	=79	=79	=79	=79
2.AA/_	.	8e/L	.	8ee\	.	.
.	.	16e/L	.	4aa\	.	.
.	.	16c#/JJ	.	.	.	.
.	.	8e/L	.	.	.	.
.	.	16e/L	.	16gg#\LL	.	.
.	.	16c#/JJ	.	16aa\JJ	.	.
.	.	8f#/L	.	(16bb\LL	.	.
.	.	.	.	16aa\)	.	.
.	.	16f#/L	.	16gg#`\	.	.
.	.	16d/JJ	.	16ff#`\JJ	.	.
=80	=80	=80	=80	=80	=80	=80
2AA/]	.	8e/L	.	[4ee\	.	.
.	.	16e/L	.	.	.	.
.	.	16c#/JJ	.	.	.	.
.	.	8e/L	.	16ee\LL]	.	.
.	.	.	.	16cc#\	.	.
.	.	16e/L	.	16a\	.	.
.	.	16c#/JJ	.	16cc#\JJ	.	.
4E\	.	8B/L	.	16dd\LL	.	.
.	.	.	.	16b\	.	.
.	.	16B/L	.	16g#\	.	.
.	.	16d/JJ	.	16b\JJ	.	.
=81	=81	=81	=81	=81	=81	=81
*tremolo	*	*	*	*	*	*
!	!LO:DY:b:t=rinf	!	!LO:DY:b:t=rinf	!	!LO:DY:b:t=rinf	!
8F#\L	rfz	8B/L	rfz	4.a/	rfz	.
8F#\	.	8d#X/	.	.	.	.
8F#\	.	8B/	.	.	.	.
8F#\	.	8d#/	.	16cc#/LL	.	.
.	.	.	.	16b/JJ	.	.
8F#\	.	8B/	.	16a/LL	.	.
.	.	.	.	16g#/	.	.
8F#\J	.	8d#/J	.	16f#/	.	.
.	.	.	.	16e/JJ	.	.
!	!	!	!	!LO:PB:g=original	!	!
=82	=82	=82	=82	=82	=82	=82
8F#\L	.	8B/L	.	8d#X/	.	.
8F#\	.	8f#/	.	4a/	.	.
8F#\	.	8B/	.	.	.	.
8F#\	.	8f#/	.	16cc#/LL	.	.
.	.	.	.	16b/JJ	.	.
8F#\	.	8B/	.	16a/LL	.	.
.	.	.	.	16g#/	.	.
8F#\J	.	8f#/J	.	16f#/	.	.
.	.	.	.	16e/JJ	.	.
*Xtremolo	*	*	*	*	*	*
=83	=83	=83	=83	=83	=83	=83
4G#\	f	4e/ 4b	f	16dn/LL	f	.
.	.	.	.	16e/	.	.
.	.	.	.	16g#/	.	.
.	.	.	.	16b/JJ	.	.
4G#\	.	4e/ 4b	.	16dd\LL	.	.
.	.	.	.	16ee\	.	.
.	.	.	.	16gg#\	.	.
.	.	.	.	16bb\JJ	.	.
4G#\	.	4e/ 4b	.	16ddd\LL	.	.
.	.	.	.	16bb\	.	.
.	.	.	.	16ddd\	.	.
.	.	.	.	(16bb\JJ	.	.
=84	=84	=84	=84	=84	=84	=84
4G#\	.	4e/ 4b	.	16ddd\LL)	.	.
.	.	.	.	16bb\	.	.
.	.	.	.	16gg#\	.	.
.	.	.	.	16ee\JJ	.	.
4r	.	4r	.	16dd\LL	.	.
.	.	.	.	16b\	.	.
.	.	.	.	16g#\	.	.
.	.	.	.	16e\JJ	.	.
8EE;</	.	8B;/ 8g#	.	8d;</	.	.
8r	.	8r	.	8r	.	.
=85	=85	=85	=85	=85	=85	=85
8r	.	4c#/ 4e	.	8a\L 8cc#	.	.
!	!	!	!	!LO:TX:a:t=flautato	!	!
8AA/L	p	.	.	16cc#\L 16ee	.	.
.	.	.	.	16a\JJ 16cc#	.	.
8C#/	.	4r	.	16cc#\LL 16ee	.	.
.	.	.	.	16b\ 16dd	.	.
8E/J	.	.	.	16a\ 16cc#	.	.
.	.	.	.	16b\JJ 16dd	.	.
4A\	.	4r	.	16cc#\LL 16ee	.	.
.	.	.	.	16a\ 16cc#	.	.
.	.	.	.	16cc#\ 16ee	.	.
.	.	.	.	16a\JJ 16cc#	.	.
!	!	!LO:LB:g=original	!	!LO:LB:g=original	!	!
=86	=86	=86	=86	=86	=86	=86
!LO:TX:a:t=1	!	!	!	!	!	!
2.r	.	8r	.	16b\LL 16dd	.	.
.	.	.	.	16ee\ 16gg#	.	.
.	.	8ee\L	p	16gg#\ 16bb	.	.
.	.	.	.	16ff#\JJ 16aa	.	.
.	.	8b\	.	16ee\LL 16gg#	.	.
.	.	.	.	16ff#\ 16aa	.	.
.	.	8g#\J	.	16gg#\ 16bb	.	.
.	.	.	.	16ff#\JJ 16aa	.	.
.	.	4e/	.	16ee\LL 16gg#	.	.
.	.	.	.	16dd\ 16ff#	.	.
.	.	.	.	16cc#\ 16ee	.	.
.	.	.	.	16b\JJ 16dd	.	.
=87	=87	=87	=87	=87	=87	=87
!	!	!LO:TX:a:t=1	!	!	!	!
8r	.	2.r	.	8a\L 8cc#	.	.
8AA/L	.	.	.	16cc#\L 16ee	.	.
.	.	.	.	16a\JJ 16cc#	.	.
8C#/	.	.	.	16cc#\LL 16ee	.	.
.	.	.	.	16b\ 16dd	.	.
8E/J	.	.	.	16a\ 16cc#	.	.
.	.	.	.	16b\JJ 16dd	.	.
4A\	.	.	.	16cc#\LL 16ee	.	.
.	.	.	.	16a\ 16cc#	.	.
.	.	.	.	16cc#\ 16ee	.	.
.	.	.	.	16a\JJ 16cc#	.	.
=88	=88	=88	=88	=88	=88	=88
!LO:TX:a:t=1	!	!	!	!	!	!
2.r	.	8r	.	16b\LL 16dd	.	.
.	.	.	.	16ee\ 16gg#	.	.
.	.	8ee\L	.	16gg#\ 16bb	.	.
.	.	.	.	16ff#\JJ 16aa	.	.
.	.	8b\	.	16ee\LL 16gg#	.	.
.	.	.	.	16ff#\ 16aa	.	.
.	.	8g#\J	.	16gg#\ 16bb	.	.
.	.	.	.	16ff#\JJ 16aa	.	.
.	.	4e/	.	16ee\LL 16gg#	.	.
.	.	.	.	16dd\ 16ff#	.	.
.	.	.	.	16cc#\ 16ee	.	.
.	.	.	.	16b\JJ 16dd	.	.
=89	=89	=89	=89	=89	=89	=89
4A\	.	4c#/ 4e	.	16a/LL 16cc#	.	.
.	.	.	.	16c#/ 16e	.	.
.	.	.	.	16d/ 16f#	.	.
.	.	.	.	16e/JJ 16g#	.	.
4r	.	4r	.	16f#/LL 16a	.	.
.	.	.	.	16g#/ 16b	.	.
.	.	.	.	16a/ 16cc#	.	.
.	.	.	.	16b/JJ 16dd	.	.
4r	.	4r	.	16cc#\LL 16ee	.	.
.	.	.	.	16dd\ 16ff#	.	.
.	.	.	.	16ee\ 16gg#	.	.
.	.	.	.	16ff#\JJ 16aa	.	.
!	!	!	!	!LO:LB:g=original	!	!
=90	=90	=90	=90	=90	=90	=90
2E\	.	4B/ 4e	.	16gg#\LL 16bb	.	.
.	.	.	.	16aa\ 16ccc#	.	.
.	.	.	.	16bb\ 16ddd	.	.
.	.	.	.	16bb\JJ 16ddd	.	.
.	.	4r	.	16bb\LL 16ddd	.	.
.	.	.	.	16aa\ 16ccc#	.	.
.	.	.	.	16aa\ 16ccc#	.	.
.	.	.	.	16aa\JJ 16ccc#	.	.
4G#\	.	4d/ 4e	.	16bb\LL 16ddd	.	.
.	.	.	.	16ee\ 16bb	.	.
.	.	.	.	16ee\ 16bb	.	.
.	.	.	.	16ee\JJ 16bb	.	.
=91	=91	=91	=91	=91	=91	=91
4A\	.	4c#/ 4e	.	16r	.	.
.	.	.	.	16c#/LL 16e	.	.
.	.	.	.	16d/ 16f#	.	.
.	.	.	.	16e/JJ 16g#	.	.
4r	.	4r	.	16f#/LL 16a	.	.
.	.	.	.	16g#/ 16b	.	.
.	.	.	.	16a/ 16cc#	.	.
.	.	.	.	16b/JJ 16dd	.	.
4r	.	4r	.	16cc#\LL 16ee	.	.
.	.	.	.	16dd\ 16ff#	.	.
.	.	.	.	16ee\ 16gg#	.	.
.	.	.	.	16ff#\JJ 16aa	.	.
=92	=92	=92	=92	=92	=92	=92
2E\	.	4B/ 4e	.	16gg#\LL 16bb	.	.
.	.	.	.	16aa\ 16ccc#	.	.
.	.	.	.	16bb\ 16ddd	.	.
.	.	.	.	16bb\JJ 16ddd	.	.
.	.	4r	.	16bb\LL 16ddd	.	.
.	.	.	.	16aa\ 16ccc#	.	.
.	.	.	.	16aa\ 16ccc#	.	.
.	.	.	.	16aa\JJ 16ccc#	.	.
4G#\	.	4d/ 4e	.	16bb\LL 16ddd	.	.
.	.	.	.	16ee\ 16bb	.	.
.	.	.	.	16ee\ 16bb	.	.
.	.	.	.	16ee\JJ 16bb	.	.
=93	=93	=93	=93	=93	=93	=93
2.A\	.	4c#/ 4e	.	16aa\LL 16ccc#	.	.
.	.	.	.	(16aa\ 16ccc#	.	.
.	.	.	.	16bb\ 16ddd	.	.
.	.	.	.	16aa\JJ) 16ccc#	.	.
.	.	4r	.	16gg#\LL 16bb	.	.
.	.	.	.	16gg#\ 16bb	.	.
.	.	.	.	16aa\ 16ccc#	.	.
.	.	.	.	16gg#\JJ 16bb	.	.
.	.	4r	.	16ff#\LL 16aa	.	.
.	.	.	.	16ff#\ 16aa	.	.
.	.	.	.	16gg#\ 16bb	.	.
.	.	.	.	16ff#\JJ 16aa	.	.
!	!	!	!	!LO:LB:g=original	!	!
=94	=94	=94	=94	=94	=94	=94
!	!	!LO:TX:a:t=1	!	!	!	!
2.A\	.	2.r	.	16ee\LL 16gg#	.	.
.	.	.	.	16ee\ 16gg#	.	.
.	.	.	.	16ff#\ 16aa	.	.
.	.	.	.	16ee\JJ 16gg#	.	.
.	.	.	.	16dd\LL 16ff#	.	.
.	.	.	.	16dd\ 16ff#	.	.
.	.	.	.	16ee\ 16gg#	.	.
.	.	.	.	16dd\JJ 16ff#	.	.
.	.	.	.	16cc#\LL 16ee	.	.
.	.	.	.	16dd\ 16ff#	.	.
.	.	.	.	16b\ 16gg#	.	.
.	.	.	.	16cc#\JJ 16aa	.	.
!LO:LB:g=original	!	!	!	!	!	!
=95	=95	=95	=95	=95	=95	=95
4r	.	4r	.	16ee\LL 16gg#	.	.
.	.	.	.	16dd\ 16ff#	.	.
.	.	.	.	16cc#\ 16ee	.	.
.	.	.	.	16b\JJ 16dd	.	.
4EE/	pp	4r	.	4a;\ 4cc#	.	.
4E;\	.	4d;/ 4e	pp	4g#;\ 4b	.	.
=96	=96	=96	=96	=96	=96	=96
!	!	!	!	!LO:TX:b:i:t=Sotto voce	!	!
.	.	.	.	8qqcc#/ 8qqee	.	.
4AA/	.	8c#/L	p	4cc#\ 4ee	.	.
.	.	8e/	.	.	.	.
4A\	.	8c#/	.	(16cc#\LL 16ee	.	.
.	.	.	.	16b\) 16dd	.	.
.	.	8e/	.	16a`\ 16cc#	.	.
.	.	.	.	16b`\JJ 16dd	.	.
4A\	.	8c#/	.	(16cc#\LL 16ee	.	.
.	.	.	.	16b\) 16dd	.	.
.	.	8e/J	.	16a`\ 16cc#	.	.
.	.	.	.	16b`\JJ 16dd	.	.
=97	=97	=97	=97	=97	=97	=97
4AA/	.	8c#/L	.	8cc#\ 8ee	.	.
.	.	8e/	.	4ee\ 4aa	.	.
4A\	.	8c#/	.	.	.	.
.	.	8e/	.	16ee\LL 16gg#	.	.
.	.	.	.	16ff#\JJ 16aa	.	.
4A\	.	8d/	.	(16gg#\LL 16bb	.	.
.	.	.	.	16ff#\) 16aa	.	.
.	.	8f#/J	.	16ee`\ 16gg#	.	.
.	.	.	.	16dd`\JJ 16ff#	.	.
=98	=98	=98	=98	=98	=98	=98
4AA/	.	8c#/L	.	4cc#\ [4ee	.	.
.	.	8e/	.	.	.	.
4A\	.	8c#/	.	16cc#\LL 16ee]	.	.
.	.	.	.	(16b\ 16dd	.	.
.	.	8e/	.	16a\ 16cc#	.	.
.	.	.	.	16b\JJ) 16dd	.	.
4A\	.	8c#/	.	(16cc#\LL 16ee	.	.
.	.	.	.	16b\ 16dd	.	.
.	.	8e/J	.	16a\ 16cc#	.	.
.	.	.	.	16cc#\JJ) 16ee	.	.
=99	=99	=99	=99	=99	=99	=99
4EE/	.	8B/L	.	16cc#\LL 16ee	.	.
.	.	.	.	16b\ 16dd	.	.
.	.	8e/	.	16a\ 16cc#	.	.
.	.	.	.	16g#\JJ 16b	.	.
4E\	.	8d/	.	8g#\L 8b	.	.
.	.	8e/	.	8g#\J 8b	.	.
4G#\	.	8d/	.	8g#\L 8b	.	.
.	.	8e/J	.	16a\L 16cc#	.	.
.	.	.	.	16b\JJ 16dd	.	.
!	!	!	!	!LO:LB:g=original	!	!
=100	=100	=100	=100	=100	=100	=100
4AA/	.	8c#/L	.	4cc#\ 4ee	.	.
.	.	8e/	.	.	.	.
4A\	.	8c#/	.	16cc#\LL 16ee	.	.
.	.	.	.	16b\ 16dd	.	.
.	.	8e/	.	16a\ 16cc#	.	.
.	.	.	.	16b\JJ 16dd	.	.
4A\	.	8c#/	.	16cc#\LL 16ee	.	.
.	.	.	.	16b\ 16dd	.	.
.	.	8e/J	.	16a\ 16cc#	.	.
.	.	.	.	16b\JJ 16dd	.	.
!	!	!LO:LB:g=original	!	!	!	!
=101	=101	=101	=101	=101	=101	=101
4AA/	.	8c#/L	.	8cc#\ 8ee	.	.
.	.	8e/	.	4ee\ 4aa	.	.
4A\	.	8c#/	.	.	.	.
.	.	8e/	.	16ee\LL 16gg#	.	.
.	.	.	.	16ff#\JJ 16aa	.	.
4A\	.	8d/	.	16gg#\LL 16bb	.	.
.	.	.	.	16ff#\ 16aa	.	.
.	.	8f#/J	.	16ee\ 16gg#	.	.
.	.	.	.	16dd\JJ 16ff#	.	.
=102	=102	=102	=102	=102	=102	=102
4AA/	.	8c#/L	.	4cc#\ 4ee	.	.
.	.	8e/	.	.	.	.
4A\	.	8c#/	.	16cc#\LL 16ee	.	.
.	.	.	.	16b\ 16dd	.	.
.	.	8e/	.	16a\ 16cc#	.	.
.	.	.	.	16cc#\JJ 16ee	.	.
4E\	.	8B/	.	16b\LL 16dd	.	.
.	.	.	.	16a\ 16cc#	.	.
.	.	8d/J	.	16b\ 16dd	.	.
.	.	.	.	16e\JJ 16b	.	.
=103	=103	=103	=103	=103	=103	=103
4A\	.	8c#/L	.	8c#/L 8a	.	.
.	.	8e/	.	16c#/L 16a	.	.
.	.	.	.	16e/JJ 16b	.	.
4AA/	.	8c#/	.	8c#/L 8a	.	.
.	.	8e/	.	16c#/L 16a	.	.
.	.	.	.	16e/JJ 16cc#	.	.
4A\	.	8c#/	.	4c#/ 4a	.	.
.	.	8e/J	.	.	.	.
=104	=104	=104	=104	=104	=104	=104
.	.	.	.	8qqee/	.	.
4EE/	.	8B/L	.	8dd\L	.	.
.	.	8e/	.	16cc#\L	.	.
.	.	.	.	16b\JJ	.	.
4E\	.	8d/	.	8b\L	.	.
.	.	8e/	.	8b\J	.	.
4G#\	.	8d/	.	8b\L	.	.
.	.	8e/J	.	16cc#\L	.	.
.	.	.	.	16dd\JJ	.	.
=105	=105	=105	=105	=105	=105	=105
4AA/	.	16e/LL	.	16cc#\LL	.	.
.	.	16d/J	.	16dd\J	.	.
.	.	8c#/J	.	[8ee\J	.	.
4E\	.	8c#/L	.	16ee\LL]	.	.
.	.	.	.	16gg#\J	.	.
.	.	8e/	.	[8aa\J	.	.
4A\	.	8c#/	.	16aa\LL]	.	.
.	.	.	.	16ee\J	.	.
.	.	8e/J	.	8cc#\J	.	.
=106	=106	=106	=106	=106	=106	=106
.	.	.	.	8qqee/	.	.
4EE/	.	8B/L	.	8dd\L	.	.
.	.	8e/	.	16cc#\L	.	.
.	.	.	.	16b\JJ	.	.
4E\	.	8d/	.	8b\L	.	.
.	.	8e/	.	8b\J	.	.
4G#\	.	8d/	.	8b\L	.	.
.	.	8e/J	.	16cc#\L	.	.
.	.	.	.	16dd\JJ	.	.
!	!	!	!	!LO:LB:g=original	!	!
=107	=107	=107	=107	=107	=107	=107
4AA/	.	16e/LL	.	16cc#\LL	.	.
.	.	16d/J	.	16dd\J	.	.
.	.	8c#/J	.	[8ee\J	.	.
4A\	.	8c#/L	.	16ee\LL]	.	.
.	.	.	.	16gg#\J	.	.
.	.	8e/	.	[8aa\J	.	.
4AA/	.	8c#/	.	16aa\LL]	.	.
.	.	.	.	16ee\J	.	.
.	.	8e/J	.	8cc#\J	.	.
=108	=108	=108	=108	=108	=108	=108
8A\L	.	8f#/L	.	16dd#X\LL	.	.
.	.	.	.	16ee\J	.	.
8B\	.	8d#X/	.	[8ff#\J	.	.
8A\	.	8f#/	.	16ff#\LL]	.	.
.	.	.	.	16gg#\J	.	.
8B\	.	8d#/	.	8aa\J	.	.
.	.	.	.	8qqbb/	.	.
8A\	.	8f#/	.	8aa\L	.	.
8B\J	.	8d#/J	.	16gg#\L	.	.
.	.	.	.	16ff#\JJ	.	.
=109	=109	=109	=109	=109	=109	=109
8G#\L	.	2.e/	.	16ee\LL	.	.
.	.	.	.	16dd#X\	.	.
8B\	.	.	.	16ee\	.	.
.	.	.	.	16ff#\JJ	.	.
8G#\	.	.	.	16gg#\LL	.	.
.	.	.	.	16ff#\	.	.
8B\	.	.	.	16gg#\	.	.
.	.	.	.	16aa\JJ	.	.
8G#\	.	.	.	16bb\LL	.	.
.	.	.	.	16gg#\	.	.
8B\J	.	.	.	16ff#\	.	.
.	.	.	.	16ee\JJ	.	.
!LO:LB:g=original	!	!	!	!	!	!
=110	=110	=110	=110	=110	=110	=110
8A\L	.	8f#/L	.	16dd#X\LL	.	.
.	.	.	.	16ee\J	.	.
8B\	.	8d#X/	.	[8ff#\J	.	.
8A\	.	8f#/	.	16ff#\LL]	.	.
.	.	.	.	16gg#\J	.	.
8B\	.	8d#/	.	8aa\J	.	.
.	.	.	.	8qqbb/	.	.
8A\	.	8f#/	.	8aa\L	.	.
8B\J	.	8d#/J	.	16gg#\L	.	.
.	.	.	.	16ff#\JJ	.	.
!	!	!LO:LB:g=original	!	!	!	!
=111	=111	=111	=111	=111	=111	=111
4G#\	.	8e/L	.	16ee\LL	p	.
.	.	.	.	16dd#X\	.	.
.	.	8b/	.	16ee\	.	.
.	.	.	.	16gg#\JJ	.	.
[2E\	.	8g#/	.	16ee\LL	.	.
.	.	.	.	16dd#\	.	.
.	.	8b/	.	16ee\	.	.
.	.	.	.	16gg#\JJ	.	.
.	.	8a/	.	16ff#\LL	.	.
!	!	!	!	!	!LO:HP:b:t=cres	!
.	.	.	.	16ee\	<	.
.	.	8b/J	.	16ff#\	.	.
.	.	.	.	16aa\JJ	.	.
!	!	!	!	!LO:LB:g=original	!	!
=112	=112	=112	=112	=112	=112	=112
4E\]	.	4g#/ 4b	.	16gg#\LL	.	.
.	.	.	.	16bb\	.	.
.	.	.	.	16aa#X\	.	.
.	.	.	.	16bb\JJ	.	.
!	!	!	!	!	!LO:DY:b:t=rinf	!
4r	.	4r	.	16aa#\LL	rfz	.
.	.	.	.	16bb\	.	.
.	.	.	.	16ccc#\	.	.
.	.	.	.	16bb\JJ	.	.
8BB/L	.	8f#/L	.	16aan\LL	.	.
.	.	.	.	16gg#\	.	.
8D#X/J	.	8b/J	.	16aa\	.	.
.	.	.	.	16ff#\JJ	.	.
=113	=113	=113	=113	=113	=113	=113
4E\	.	8g#/L	.	16ee\LL	p	.
.	.	.	.	16dd#X\	.	.
.	.	8b/	.	16ee\	.	.
.	.	.	.	16gg#\JJ	.	.
[2E\	.	8g#/	.	16ee\LL	.	.
.	.	.	.	16dd#\	.	.
.	.	8b/	.	16ee\	.	.
.	.	.	.	16gg#\JJ	.	.
!	!	!	!	!	!LO:HP:b:t=cres	!
.	.	8a/	.	16ff#\LL	<	.
.	.	.	.	16ee\	.	.
.	.	8b/J	.	16ff#\	.	.
.	.	.	.	16aa\JJ	.	.
=114	=114	=114	=114	=114	=114	=114
4E\]	.	4g#/ 4b	.	16gg#\LL	.	.
.	.	.	.	16bb\	.	.
.	.	.	.	16aa#X\	.	.
.	.	.	.	16bb\JJ	.	.
!	!	!	!	!	!LO:DY:b:t=rinf	!
4r	.	4r	.	16aa#\LL	rfz	.
.	.	.	.	16bb\	.	.
.	.	.	.	16ccc#\	.	.
.	.	.	.	16bb\JJ	.	.
8BB/L	.	8f#/L	.	16aan\LL	.	.
.	.	.	.	16gg#\	.	.
8D#X/J	.	8b/J	.	16aa\	.	.
.	.	.	.	16ff#\JJ	.	.
=115	=115	=115	=115	=115	=115	=115
4E\	.	4g#/ 4b	.	16ee\LL	p	.
.	.	.	.	16dd#X\	.	.
.	.	.	.	16ff#\	.	.
.	.	.	.	16ee\JJ	.	.
4r	.	4r	.	16gg#\LL	.	.
.	.	.	.	16ff#\	.	.
.	.	.	.	16aa\	.	.
.	.	.	.	16gg#\JJ	.	.
8D#X/L	.	8f#/L	.	16bb\LL	.	.
!	!	!	!	!	!LO:DY:b:t=rinf	!
.	.	.	.	16aa\	rfz	.
8BB/J	.	8a/J	.	16ff#\	.	.
.	.	.	.	16gg#\JJ	.	.
!	!	!	!	!LO:LB:g=original	!	!
=116	=116	=116	=116	=116	=116	=116
4E\	.	4g#/	.	16ee\LL	.	.
.	.	.	.	16dd\	.	.
.	.	.	.	16ff#\	.	.
.	.	.	.	16ee\JJ	.	.
4r	.	4r	.	16gg#\LL	.	.
.	.	.	.	16ff#\	.	.
.	.	.	.	16aa\	.	.
.	.	.	.	16gg#\JJ	.	.
8d#X\L	.	8f#/L	.	16bb\LL	.	.
.	.	.	.	16aa\	.	.
8B\J	.	8a/J	.	16ff#\	.	.
.	.	.	.	16gg#\JJ	.	.
=117	=117	=117	=117	=117	=117	=117
4e\	.	4g#/	.	(16ee\LL	.	.
.	.	.	.	16dd#X\)	.	.
.	.	.	.	(16ff#\	.	.
.	.	.	.	16ee\JJ)	.	.
4r	.	4r	.	16gg#\LL	.	.
.	.	.	.	16ff#\	.	.
.	.	.	.	16aa\	.	.
.	.	.	.	16gg#\JJ	.	.
4r	.	4r	.	16bb\LL	.	.
.	.	.	.	16aa\	.	.
.	.	.	.	16ccc#\	.	.
.	.	.	.	16bb\JJ	.	.
=118	=118	=118	=118	=118	=118	=118
4E\	.	4g#/ 4b	.	16ddd\LL	.	.
.	.	.	.	16ccc#\	.	.
.	.	.	.	16eee\	.	.
.	.	.	.	16ddd\JJ	.	.
4r	.	4r	.	16fff#\LL	.	.
.	.	.	.	16eee\	.	.
.	.	.	.	16eee\	.	.
.	.	.	.	16ddd\JJ	.	.
4r	.	4r	.	16ddd\LL	.	.
.	.	.	.	16ccc#\	.	.
.	.	.	.	16ccc#\	.	.
.	.	.	.	16bb\JJ	.	.
=119	=119	=119	=119	=119	=119	=119
4EE/	.	4B/ 4g#	.	16bb\LL	.	.
.	.	.	.	16aa\	.	.
.	.	.	.	16aa\	.	.
.	.	.	.	16gg#\JJ	.	.
4r	.	4r	.	16gg#\LL	.	.
.	.	.	.	16ddd\	>	.
.	.	.	.	16ddd\	.	.
.	.	.	.	16ccc#\JJ	.	.
4r	.	4r	.	16ccc#\LL	.	.
.	.	.	.	16bb\	.	.
.	.	.	.	16bb\	.	.
.	.	.	.	16aa\JJ	]]	.
!	!	!	!	!LO:LB:g=original	!	!
=120	=120	=120	=120	=120	=120	=120
!LO:TX:a:t=2	!	!LO:TX:a:t=2	!	!	!	!
!LO:N:vis=0	!	!LO:N:vis=0	!	!	!	!
1.r	.	1.r	.	16aa\LL	>	.
.	.	.	.	16gg#\	.	.
.	.	.	.	16gg#\	.	.
.	.	.	.	16ff#\JJ	.	.
.	.	.	.	16ff#\LL	.	.
.	.	.	.	16ee\	.	.
.	.	.	.	16ee\	.	.
.	.	.	.	16bb\JJ	.	.
.	.	.	.	16bb\LL	.	.
.	.	.	.	16aa\	.	.
.	.	.	.	16aa\	.	.
.	.	.	.	16gg#\JJ	.	.
=121	=121	=121	=121	=121	=121	=121
.	.	.	.	16gg#\LL	.	.
.	.	.	.	16ff#\	.	.
.	.	.	.	16ff#\	.	.
.	.	.	.	16ee\JJ	.	.
.	.	.	.	16ee\LL	.	.
.	.	.	.	16ff#\	.	.
.	.	.	.	16ff#\	.	.
.	.	.	.	16ee\JJ	.	.
.	.	.	.	16ee\LL	.	.
.	.	.	.	16ffn\	.	.
.	.	.	.	16ff\	.	.
.	.	.	.	16ee\JJ	]	.
=122	=122	=122	=122	=122	=122	=122
4AA/	p	8cn/L	p	[4ee\	p	.
.	.	8e/	.	.	.	.
4A\	.	8c/	.	16ee\LL]	.	.
.	.	.	.	16ccn`\	.	.
.	.	8e/	.	16a`\	.	.
.	.	.	.	16cc`\JJ	.	.
4A\	.	8c/	.	16ee\LL	.	.
.	.	.	.	16cc\	.	.
.	.	8e/J	.	16a\	.	.
.	.	.	.	16cc\JJ	.	.
=123	=123	=123	=123	=123	=123	=123
2.A\	.	8cn/L	.	8ee\	.	.
.	.	8e/	.	4aa\	.	.
.	.	8c/	.	.	.	.
.	.	8e/	.	16gg#\LL	.	.
.	.	.	.	16aa\JJ	.	.
.	.	8c/	.	(16bb\LL	.	.
.	.	.	.	16aa\)	.	.
.	.	8e/J	.	16gg#`\	.	.
.	.	.	.	16aa`\JJ	.	.
=124	=124	=124	=124	=124	=124	=124
!	!LO:DY:b:t=rinf	!	!	!	!LO:DY:b:t=rinf	!
4AA/	rfz	8cn/L	.	[4ffn\	rfz	.
!	!	!	!LO:DY:b:t=rinf	!	!	!
.	.	8fn/	rfz	.	.	.
4A\	.	8c/	.	16ff\LL]	.	.
.	.	.	.	16ccn`\	.	.
.	.	8f/	.	16a`\	.	.
.	.	.	.	16cc`\JJ	.	.
4A\	.	8c/	.	16ff\LL	.	.
.	.	.	.	16cc\	.	.
.	.	8f/J	.	16a\	.	.
.	.	.	.	16cc\JJ	.	.
!	!	!LO:LB:g=original	!	!LO:LB:g=original	!	!
=125	=125	=125	=125	=125	=125	=125
2.A\	.	8cn/L	.	8ffn\	.	.
.	.	8fn/	.	4aa\	.	.
.	.	8cn/	.	.	.	.
.	.	8f/	.	16bb-X\LL	.	.
.	.	.	.	16cccn\JJ	.	.
.	.	8c/	.	16bb-\LL	.	.
.	.	.	.	16aa\	.	.
.	.	8f/J	.	16ggn\	.	.
.	.	.	.	16ff\JJ	.	.
!LO:LB:g=original	!	!	!	!	!	!
=126	=126	=126	=126	=126	=126	=126
4GGn/	.	8cn/L	f	[4bb-X\	f	.
.	.	8e/	.	.	.	.
4Gn\	.	8c/	.	16bb-\LL]	.	.
.	.	.	.	16ggn`\	.	.
.	.	8e/	.	16ee`\	.	.
.	.	.	.	16gg`\JJ	.	.
4G\	.	8c/	.	16bb-\LL	.	.
.	.	.	.	16gg\	.	.
.	.	8e/J	.	16ee\	.	.
.	.	.	.	16gg\JJ	.	.
=127	=127	=127	=127	=127	=127	=127
4FFn/	.	8cn/L	.	(16aa\LL	.	.
.	.	.	.	16ffn\)	.	.
.	.	8fn/	.	16aa`\	.	.
.	.	.	.	16cccn`\JJ	.	.
4Fn\	.	8c/	.	16fffn\LL	.	.
.	.	.	.	16ccc\	.	.
.	.	8f/	.	16aa\	.	.
.	.	.	.	16ccc\JJ	.	.
4F\	.	8c/	.	16aa\LL	.	.
.	.	.	.	16ccc\	.	.
.	.	8f/J	.	16bb-X\	.	.
.	.	.	.	16aa\JJ	.	.
=128	=128	=128	=128	=128	=128	=128
4Gn\	.	8cn/L	p	[4bb-X\	.	.
.	.	8e/	.	.	.	.
4E\	.	8gn/	.	16bb-\LL]	.	.
.	.	.	.	16ggn\	.	.
.	.	8e/	.	16ee\	.	.
.	.	.	.	16gg\JJ	.	.
4Cn/	.	8Gn/	.	16bb-\LL	.	.
.	.	.	.	16gg\	.	.
.	.	8e/J	.	16ee\	.	.
.	.	.	.	16gg\JJ	.	.
!	!	!	!	!LO:LB:g=original	!	!
=129	=129	=129	=129	=129	=129	=129
2Fn\	.	4A/	.	16aa\LL	.	.
.	.	.	.	16ffn\	.	.
.	.	.	.	16aa\	.	.
.	.	.	.	16cccn\JJ	.	.
.	.	2a/	.	16fffn\LL	.	.
.	.	.	.	16ccc\	.	.
.	.	.	.	16aa\	.	.
.	.	.	.	16ccc\JJ	.	.
4E\	.	.	.	16aa\LL	.	.
.	.	.	.	16ccc\	.	.
.	.	.	.	16aa\	.	.
.	.	.	.	16ccc\JJ	.	.
=130	=130	=130	=130	=130	=130	=130
!	!LO:DY:b:t=rinf	!	!	!	!	!
2D#X\	rfz	8r	.	(16aa\LL	.	.
.	.	.	.	16cccn\	.	.
!	!	!	!	!	!LO:DY:b:t=rinf	!
.	.	8f#X/	.	16bbn\)	rfz	.
.	.	.	.	16ccc`\JJ	.	.
!	!	!	!LO:DY:b:t=rinf	!	!	!
.	.	8d#X/L	rfz	(16aa\LL	.	.
.	.	.	.	16ccc\	.	.
.	.	8f#/	.	16bb\)	.	.
.	.	.	.	16ccc`\JJ	.	.
4D#\	.	8d#/	.	(16aa\LL	.	.
.	.	.	.	16ccc\	.	.
.	.	8f#/J	.	16bb\)	.	.
.	.	.	.	16ccc`\JJ	.	.
=131	=131	=131	=131	=131	=131	=131
[2.E\	p	8g#X/	p	[4bb\	.	.
.	.	4B/	.	.	.	.
!	!	!	!	!LO:TX:b:i:t=dol	!	!
.	.	.	.	16bb\LL]	.	.
.	.	.	.	16gg#X`\	.	.
.	.	8g#/L	.	16ee`\	.	.
.	.	.	.	16gg#`\JJ	.	.
.	.	8B/	.	16bb\LL	.	.
.	.	.	.	16gg#\	.	.
.	.	8B/J	.	16ee\	.	.
.	.	.	.	16gg#\JJ	.	.
=132	=132	=132	=132	=132	=132	=132
2.E\_	.	8cn/L	.	16aa\LL	.	.
.	.	.	.	16bb\J	.	.
.	.	8a/	.	[8cccn\J	.	.
.	.	8e/	.	16ccc\LL]	.	.
.	.	.	.	16bb\J	.	.
.	.	8a/	.	[8aa\J	.	.
.	.	8c/	.	16aa\LL]	.	.
.	.	.	.	16bb\J	.	.
.	.	8a/J	.	8ccc\J	.	.
!	!	!	!	!LO:LB:g=original	!	!
=133	=133	=133	=133	=133	=133	=133
8E\]	.	8r	.	[4bb\	.	.
8r	.	8g#/	.	.	.	.
8E\	.	8r	.	16bb\LL]	.	.
.	.	.	.	16gg#X\	.	.
8r	.	8e/	.	16ee\	.	.
.	.	.	.	16gg#\JJ	.	.
8E\	.	8r	.	16bb\LL	.	.
.	.	.	.	16gg#\	.	.
8r	.	8B/	.	16ee\	.	.
.	.	.	.	16gg#\JJ	.	.
=134	=134	=134	=134	=134	=134	=134
8E\	.	8r	.	16aa\LL	.	.
.	.	.	.	16bb\J	.	.
8r	.	8cn/	.	[8cccn\J	.	.
8E\	.	8r	.	16ccc\LL]	.	.
.	.	.	.	16bb\J	.	.
8r	.	8e/	.	[8aa\J	.	.
8E\	.	8r	.	16aa\LL]	.	.
.	.	.	.	16bb\J	.	.
8r	.	8a/	.	8ccc\J	.	.
!	!	!LO:LB:g=original	!	!	!	!
=135	=135	=135	=135	=135	=135	=135
8E\	p	8r	.	16r	.	.
.	.	.	.	(16bb\LL	.	.
8r	.	8g#`/	pp	16aa#X\	.	.
.	.	.	.	16bb\JJ)	.	.
8E\	.	8r	.	16r	.	.
.	.	.	.	(16gg#\LL	.	.
8r	.	8b`\	.	16ff#X\	.	.
.	.	.	.	16gg#\JJ)	.	.
8E\	.	8r	.	16r	.	.
.	.	.	.	(16ee\LL	.	.
8r	.	8g#`/ 8b	.	16dd#X\	.	.
.	.	.	.	16ee\JJ)	.	.
=136	=136	=136	=136	=136	=136	=136
8E\	.	8r	.	16r	.	.
.	.	.	.	(16b\LL	.	.
8r	.	8g#`/	.	16a#X\	.	.
.	.	.	.	16b\JJ)	.	.
8E\	.	8r	.	16r	.	.
.	.	.	.	(16g#/LL	.	.
8r	.	8B`/	.	16f#X/	.	.
.	.	.	.	16g#/JJ)	.	.
8E\	.	8r	.	16r	.	.
.	.	.	.	(16e/LL	.	.
8r	.	8G#`/	.	16d#X/	.	.
.	.	.	.	16e/JJ)	.	.
!	!	!	!	!LO:LB:g=original	!	!
=137	=137	=137	=137	=137	=137	=137
8E\	pp	8r	.	16r	.	.
.	.	.	.	(16e/LL	.	.
8r	.	8G#`/	.	16fn/	.	.
.	.	.	.	16e/JJ)	.	.
8E\	.	8r	.	16r	.	.
.	.	.	.	(16e/LL	.	.
8r	.	8G#`/	.	16d#X/	.	.
.	.	.	.	16e/JJ)	.	.
8E\	.	8r	.	16r	.	.
.	.	.	.	(16e/LL	.	.
8r	.	8G#`/	.	16f/	.	.
.	.	.	.	16e/JJ)	.	.
=138	=138	=138	=138	=138	=138	=138
4E\	.	8G#/	.	16r	.	.
.	.	.	.	16e`/LL	.	.
.	.	8r	.	16fn`/	.	.
.	.	.	.	16f#X`/JJ	.	.
8r	.	4r	.	16g#`/LL	.	.
.	.	.	.	16a`/	.	.
4r	.	.	.	16a#X`/	.	.
.	.	.	.	16b`/JJ	.	.
.	.	4r	.	16ccn`\LL	.	.
.	.	.	.	16cc#X`\	.	.
8r	.	.	.	16dd`\	.	.
.	.	.	.	16dd#X`\JJ	.	.
!LO:LB:g=original	!	!	!	!	!	!
=139	=139	=139	=139	=139	=139	=139
4AA/	.	8c#X/L	.	[4ee\	.	.
.	.	8e/	p	.	.	.
4A\	.	8c#/	.	16ee\LL]	.	.
.	.	.	.	16cc#X\	.	.
.	.	8e/	.	16a\	.	.
.	.	.	.	16cc#\JJ	.	.
4A\	.	8c#/	.	16ee\LL	.	.
.	.	.	.	16cc#\	.	.
.	.	8e/J	.	16a\	.	.
.	.	.	.	16cc#\JJ	.	.
=140	=140	=140	=140	=140	=140	=140
4AA/	.	8c#/L	.	8ee\	.	.
.	.	8e/	.	4aa`\	.	.
4A\	.	8c#/	.	.	.	.
.	.	8e/	.	16gg#\LL	.	.
.	.	.	.	16aa\JJ	.	.
4A\	.	8d/	.	(16bb\LL	.	.
.	.	.	.	16aa\)	.	.
.	.	8f#/J	.	16gg#`\	.	.
.	.	.	.	16ff#`\JJ	.	.
=141	=141	=141	=141	=141	=141	=141
4AA/	.	8c#/L	.	[4ee\	.	.
.	.	8e/	.	.	.	.
4A\	.	8c#/	.	16ee\LL]	.	.
.	.	.	.	16cc#\	.	.
.	.	8e/	.	16a\	.	.
.	.	.	.	16cc#\JJ	.	.
4A\	.	8c#/	.	16ee\LL	.	.
.	.	.	.	16cc#\	.	.
.	.	8e/J	.	16a\	.	.
.	.	.	.	16cc#\JJ	.	.
!	!	!	!	!LO:LB:g=original	!	!
=142	=142	=142	=142	=142	=142	=142
.	.	.	.	8qqee/	.	.
4EE/	.	8B/L	.	8dd\L	.	.
.	.	8e/	.	16cc#\L	.	.
.	.	.	.	16b\JJ	.	.
4E\	.	8d/	.	8b\L	.	.
.	.	8e/	.	8b\J	.	.
4G#\	.	8d/	.	8b\L	.	.
.	.	8e/J	.	16cc#\L	.	.
.	.	.	.	16dd\JJ	.	.
=143	=143	=143	=143	=143	=143	=143
4AA/	.	8c#/L	.	[4ee\	.	.
.	.	8e/	.	.	.	.
4A\	.	8c#/	.	16ee\LL]	.	.
.	.	.	.	16cc#\	.	.
.	.	8e/	.	16a\	.	.
.	.	.	.	16cc#\JJ	.	.
4A\	.	8c#/	.	16ee\LL	.	.
.	.	.	.	16cc#\	.	.
.	.	8e/J	.	16a\	.	.
.	.	.	.	16cc#\JJ	.	.
=144	=144	=144	=144	=144	=144	=144
!	!LO:DY:b:t=rinf	!	!	!	!	!
4AA/	rfz	8c#/L	.	8ee\	.	.
!	!	!	!	!	!LO:HP:b:t=cres	!
.	.	8e/	.	4aa\	<	.
!	!	!	!LO:DY:b:t=rinf	!	!	!
4A\	.	8c#/	rfz	.	.	.
.	.	8e/	.	4aa\	.	.
4A\	.	8c#/	.	.	.	.
.	.	8e/J	.	16ccc#\LL	.	.
.	.	.	.	16ddd\JJ	.	.
!	!	!LO:LB:g=original	!	!	!	!
=145	=145	=145	=145	=145	=145	=145
4AA/	f	8c#/L	f	[4eee\	.	.
.	.	8e/	.	.	.	.
!	!	!	!	!	!LO:DY:b:t=rinf	!
4A\	.	8c#/	.	16eee\LL]	rfz	.
.	.	.	.	16ccc#`\	.	.
.	.	8e/	.	16aa`\	.	.
.	.	.	.	16ccc#\JJ	.	.
4E\	.	8B/	.	16ddd\LL	.	.
.	.	.	.	16bb\	.	.
.	.	8d/J	.	16gg#`\	.	.
.	.	.	.	16bb`\JJ	.	.
=146	=146	=146	=146	=146	=146	=146
!	!	!	!	!LO:TX:b:i:t=dol	!	!
4A\	p	8c#/L	.	4.aa\	.	.
.	.	[8e/J	p	.	.	.
2AA/	.	16e/LL]	.	.	.	.
.	.	16c#/	.	.	.	.
.	.	16A/	.	16bb\LL	.	.
.	.	16c#/JJ	.	16ccc#\JJ	.	.
.	.	16e/LL	.	8aa\L	.	.
.	.	16c#/	.	.	.	.
.	.	16A/	.	16ccc#\L	.	.
.	.	16c#/JJ	.	16eee\JJ	.	.
!	!	!	!	!LO:LB:g=original	!	!
=147	=147	=147	=147	=147	=147	=147
4EE/	.	8B/L	.	8ddd\L	.	.
!	!	!	!	!	!LO:DY:b:t=rinf	!
.	.	8g#X/J	.	16ddd\L	rfz	.
.	.	.	.	16ccc#\JJ	.	.
!	!LO:DY:b:t=rinf	!	!	!	!	!
2E\	rfz	8g#/L	.	8bb\L	.	.
.	.	16g#/L	.	16bb\L	.	.
.	.	16f#/JJ	.	16aa\JJ	.	.
.	.	8e/L	.	16gg#\LL	.	.
.	.	.	.	16ee\	.	.
.	.	8d/J	.	16ff#\	.	.
.	.	.	.	16gg#\JJ	.	.
=148	=148	=148	=148	=148	=148	=148
4A\	.	8c#/L	.	4.aa\	p	.
.	.	8e/J	.	.	.	.
2AA/	p	16e/LL	.	.	.	.
.	.	16c#/	.	.	.	.
.	.	16A/	.	16bb\LL	.	.
.	.	16c#/JJ	.	16ccc#\JJ	.	.
.	.	16e/LL	.	8aa\L	.	.
.	.	16c#/	.	.	.	.
.	.	16A/	.	16ccc#\L	.	.
.	.	16c#/JJ	.	16eee\JJ	.	.
=149	=149	=149	=149	=149	=149	=149
4EE/	.	8B/L	.	8ddd\L	.	.
.	.	8g#/J	.	16ddd\L	.	.
!	!	!	!	!	!LO:DY:b:t=rinf	!
.	.	.	.	16ccc#\JJ	rfz	.
!	!LO:DY:b:t=rinf	!	!	!	!	!
2E\	rfz	8g#/L	.	8bb\L	.	.
.	.	16g#/L	.	16bb\L	.	.
.	.	16f#/JJ	.	16aa\JJ	.	.
.	.	8e/L	.	16gg#\LL	.	.
.	.	.	.	16ee\	.	.
.	.	16e/L	.	16ff#\	.	.
.	.	16d/JJ	.	16gg#\JJ	.	.
=150	=150	=150	=150	=150	=150	=150
4AA/	f	4c#/	f	4aa\	.	.
4A\	.	4c#/ 4e 4a	.	16aa\LL	f	.
.	.	.	.	16ee\	.	.
.	.	.	.	16cc#\	.	.
.	.	.	.	16ee\JJ	.	.
4A\	.	4c#/ 4e 4a	.	16aa\LL	.	.
.	.	.	.	16ee\	.	.
.	.	.	.	16cc#\	.	.
.	.	.	.	16ee\JJ	.	.
=151	=151	=151	=151	=151	=151	=151
*	*	*	*	*^	*	*
4A\	.	4c#/ 4e 4a	.	2.cc#/ 2.aa	4e\	.	.
16A\LL	.	16e/LL	.	.	4e\	.	.
16E\	.	16c#/	.	.	.	.	.
16C#\	.	16A/	.	.	.	.	.
16E\JJ	.	16c#/JJ	.	.	.	.	.
16A\LL	.	16e/LL	.	.	4e\	.	.
16E\	.	16c#/	.	.	.	.	.
16C#\	.	16A/	.	.	.	.	.
16E\JJ	.	16c#/JJ	.	.	.	.	.
*	*	*	*	*v	*v	*	*
=152	=152	=152	=152	=152	=152	=152
4AA/	.	4A/ 4e	.	4e\ 4cc# 4aa	.	.
4r	.	4r	.	4r	.	.
4r	.	4r	.	4r	.	.
=153	=153	=153	=153	=153	=153	=153
16r	.	16a/LL	ff	4e\ 4cc# 4aa	.	.
16AA/LL	.	16e/	.	.	.	.
16C#/	.	16c#/	.	.	.	.
16E/JJ	.	16e/JJ	.	.	.	.
4A\	.	4a/	.	4A/ 4e 4a	.	.
4r	.	4r	.	4r	.	.
==	==	==	==	==	==	==
*-	*-	*-	*-	*-	*-	*-
!!!system-decoration: [(s1,s2,s3)]
!!!RDF**kern: < = below
!!!ENC: Mateusz Solarz
!!!END: 2022-05-21
!!!ENC: Urszula Świątek
!!!END: 2022-06-30
